X:1
T:Ordu, 76.76.77.77
T:Ordu, 76.76.77.77
T:Charles Hutchinson Gabriel, 1913
T:Public Domain Courtesy of the Cyber Hymnal™
C:Charles Hutchinson Gabriel, 1913
Z:Public Domain
Z:Courtesy of the Cyber Hymnal™
%%score ( 1 2 ) ( 3 4 )
L:1/8
Q:1/4=96
M:3/4
K:Db
V:1 treble 
V:2 treble 
V:3 bass 
V:4 bass 
V:1
 [DF]3 [DF] [DE]D | [DF][FA] [FA]4 | [FA][DF] [DF]4 | [CE]D D4 | [DF]3 [DF] [DE]D | %5
 [DF][FA] [FA]4 | [Fd][FA] ([FA]3 [DF]) | [CE]D D4 | [Fd]3 [Ge] [Fd][FA] | [GB][Gd] [FA]4 | %10
 [Fd]3 [Ge] [Fd][FA] | [DF]D [CE]4 | [DF]3 [DF] [DE]D | [DF][FA] [FA]4 | [Fd][FA] [FA]3 [DF] | %15
 [CE][A,D] [A,D]4 |] %16
V:2
 x5 D | x6 | x6 | x D D4 | x5 D | x6 | x6 | x D D4 | x6 | x6 | x6 | x D x4 | x5 D | x6 | x6 | x6 |] %16
V:3
 [D,A,]3 [D,A,] [D,G,][D,F,] | [D,A,][D,D] [D,D]4 | [D,D][D,A,] [D,A,]4 | [A,,G,][D,F,] [D,F,]4 | %4
 [D,A,]3 [D,A,] [D,G,][D,F,] | [D,A,][D,D] [D,D]4 | [D,A,][D,D] (D3 A,) | [A,,G,][D,F,] [D,F,]4 | %8
 [D,A,]3 [D,A,] [D,A,][D,D] | [G,,D][B,,D] [D,D]4 | [D,A,]3 [D,A,] [D,A,][D,D] | %11
 [D,A,][D,F,] [A,,A,]4 | [D,A,]3 [D,A,] [D,G,][D,F,] | [D,A,][D,D] [D,D]4 | %14
 [D,A,][D,D] [D,D]3 [D,A,] | [A,,G,][D,F,] [D,F,]4 |] %16
V:4
 x6 | x6 | x6 | x6 | x6 | x6 | x2 D,4 | x6 | x6 | x6 | x6 | x6 | x6 | x6 | x6 | x6 |] %16

